X: 31800
T: Patsy Geary's
R: slide
M: 12/8
K: Dmajor
FAA dAA|FAA BAG|FGA def|~f3 fef|
gAA fAA|eAA dBA|ABd f2e|~d3 d2e|

